branches/nugui/src/gui/icons/vector_generatexp.svg

<?xml version="1.0" encoding="UTF-8" standalone="no"?>
<!-- Created with Inkscape (http://www.inkscape.org/) -->

<svg
   xmlns:dc="http://purl.org/dc/elements/1.1/"
   xmlns:cc="http://creativecommons.org/ns#"
   xmlns:rdf="http://www.w3.org/1999/02/22-rdf-syntax-ns#"
   xmlns:svg="http://www.w3.org/2000/svg"
   xmlns="http://www.w3.org/2000/svg"
   xmlns:xlink="http://www.w3.org/1999/xlink"
   xmlns:inkscape="http://www.inkscape.org/namespaces/inkscape"
   version="1.0"
   width="100"
   height="100"
   id="svg2">
  <metadata
     id="metadata2566">
    <rdf:RDF>
      <cc:Work
         rdf:about="">
        <dc:format>image/svg+xml</dc:format>
        <dc:type
           rdf:resource="http://purl.org/dc/dcmitype/StillImage" />
      </cc:Work>
    </rdf:RDF>
  </metadata>
  <defs
     id="defs4">
    <linearGradient
       id="linearGradient3189">
      <stop
         id="stop2575"
         style="stop-color:#000000;stop-opacity:1"
         offset="0" />
      <stop
         id="stop3193"
         style="stop-color:#000000;stop-opacity:0"
         offset="1" />
    </linearGradient>
    <linearGradient
       id="linearGradient3197">
      <stop
         id="stop3199"
         style="stop-color:#e4e1e1;stop-opacity:1"
         offset="0" />
      <stop
         id="stop3201"
         style="stop-color:#e4af00;stop-opacity:1"
         offset="1" />
    </linearGradient>
    <radialGradient
       cx="50.059151"
       cy="48.853989"
       r="42.138134"
       fx="50.059151"
       fy="48.853989"
       id="radialGradient3373"
       xlink:href="#linearGradient3197"
       gradientUnits="userSpaceOnUse"
       gradientTransform="matrix(0,-1.809554,2.0282216,0,8.9085149,148.80229)" />
    <radialGradient
       cx="50.059151"
       cy="48.853989"
       r="42.138134"
       fx="50.059151"
       fy="48.853989"
       id="radialGradient3375"
       xlink:href="#linearGradient3189"
       gradientUnits="userSpaceOnUse"
       gradientTransform="matrix(0,-1.809554,2.0282216,0,8.9085149,148.80229)" />
    <radialGradient
       cx="50.059151"
       cy="48.853989"
       r="42.138134"
       fx="50.059151"
       fy="48.853989"
       id="radialGradient3377"
       xlink:href="#linearGradient3197"
       gradientUnits="userSpaceOnUse"
       gradientTransform="matrix(-0.682658,0.682658,-0.7651508,-0.7651508,53.676632,59.994632)" />
    <radialGradient
       cx="50.059151"
       cy="48.853989"
       r="42.138134"
       fx="50.059151"
       fy="48.853989"
       id="radialGradient3379"
       xlink:href="#linearGradient3189"
       gradientUnits="userSpaceOnUse"
       gradientTransform="matrix(-0.682658,0.682658,-0.7651508,-0.7651508,53.676632,59.994632)" />
    <radialGradient
       cx="50.059151"
       cy="48.853989"
       r="42.138134"
       fx="50.059151"
       fy="48.853989"
       id="radialGradient3381"
       xlink:href="#linearGradient3197"
       gradientUnits="userSpaceOnUse"
       gradientTransform="matrix(0,0.9654244,-1.0820868,0,71.17383,35.315461)" />
    <radialGradient
       cx="50.059151"
       cy="48.853989"
       r="42.138134"
       fx="50.059151"
       fy="48.853989"
       id="radialGradient3383"
       xlink:href="#linearGradient3189"
       gradientUnits="userSpaceOnUse"
       gradientTransform="matrix(0,0.9654244,-1.0820868,0,71.17383,35.315461)" />
  </defs>
  <g
     transform="matrix(0.72073121,-0.72073121,0.72073121,0.72073121,-39.422251,29.992356)"
     id="g3360">
    <g
       id="g3277">
      <g
         transform="translate(7.6547571,-11.391836)"
         id="g3263">
        <g
           transform="translate(0,-10.377415)"
           id="g3239">
          <g
             transform="matrix(-0.3772521,0.3772521,-0.3772521,-0.3772521,117.70974,90.037393)"
             id="g2557">
            <path
               d="M 43.094891,58.217554 24.666396,60.76013 51.44113,11.077996 78.21586,60.76013 60.321526,58.217554 c 0,1.962365 -0.194359,102.333876 0,104.245316 l -17.226635,0 0,-104.245316 z"
               inkscape:connector-curvature="0"
               id="path3242"
               style="fill:none;stroke:#000000;stroke-width:5.96735048;stroke-linecap:round;stroke-linejoin:round;stroke-miterlimit:4;stroke-opacity:1;stroke-dasharray:none;stroke-dashoffset:0" />
            <path
               d="M 43.094891,58.217549 24.666396,60.760131 51.44113,11.077995 78.21586,60.760131 60.321526,58.217549 c 0,1.962375 -0.194359,102.478481 0,104.389921 l -17.226635,0 0,-104.389921 z"
               inkscape:connector-curvature="0"
               id="path3176"
               style="fill:url(#radialGradient3373);fill-opacity:1;fill-rule:evenodd;stroke:url(#radialGradient3375);stroke-width:4.27327442;stroke-linecap:round;stroke-linejoin:round;stroke-miterlimit:4;stroke-opacity:1;stroke-dashoffset:0" />
          </g>
        </g>
      </g>
      <g
         transform="translate(8.4466285,-12.209158)"
         id="g3259">
        <path
           d="m 6.6064735,81.271027 7.9113785,5.992997 -28.84351,8.641859 8.641863,-28.843506 5.79148469,7.709865 C 0.84799515,74.031937 38.786681,36.239895 39.434453,35.445479 l 6.498783,6.498784 -39.3267625,39.326764 z"
           inkscape:connector-curvature="0"
           id="path2583"
           style="fill:none;stroke:#000000;stroke-width:3.183671;stroke-linecap:round;stroke-linejoin:round;stroke-miterlimit:4;stroke-opacity:1;stroke-dasharray:none;stroke-dashoffset:0" />
        <path
           d="m 6.6064735,81.271027 7.9113785,5.992997 -28.84351,8.641859 8.641863,-28.843506 5.79148469,7.709865 C 0.84799515,74.031937 38.841227,36.18535 39.488999,35.390933 l 6.498784,6.498784 -39.3813095,39.38131 z"
           inkscape:connector-curvature="0"
           id="path2585"
           style="fill:url(#radialGradient3377);fill-opacity:1;fill-rule:evenodd;stroke:url(#radialGradient3379);stroke-width:2.27985597;stroke-linecap:round;stroke-linejoin:round;stroke-miterlimit:4;stroke-opacity:1;stroke-dashoffset:0" />
      </g>
    </g>
    <path
       d="m 52.934882,83.643786 9.83188,-1.356503 -14.284725,26.506167 -14.284722,-26.506167 9.546897,1.356503 c 0,-1.046952 0.103693,-54.596668 0,-55.61645 l 9.19067,0 0,55.61645 z"
       inkscape:connector-curvature="0"
       id="path3295"
       style="fill:none;stroke:#000000;stroke-width:3.18367147;stroke-linecap:round;stroke-linejoin:round;stroke-miterlimit:4;stroke-opacity:1;stroke-dasharray:none;stroke-dashoffset:0" />
    <path
       d="m 52.934882,83.643789 9.83188,-1.356506 -14.284725,26.506167 -14.284722,-26.506167 9.546897,1.356506 c 0,-1.046957 0.103693,-54.673818 0,-55.6936 l 9.19067,0 0,55.6936 z"
       inkscape:connector-curvature="0"
       id="path3297"
       style="opacity:0;fill:url(#radialGradient3381);fill-opacity:1;fill-rule:evenodd;stroke:url(#radialGradient3383);stroke-width:2.27985644;stroke-linecap:round;stroke-linejoin:round;stroke-miterlimit:4;stroke-opacity:1;stroke-dashoffset:0" />
  </g>
  <g
     transform="matrix(2.6976418,0,0,2.6976418,204.55893,-46.715806)"
     id="g3417">
    <text
       x="-62.713013"
       y="53.964844"
       id="text3405"
       xml:space="preserve"
       style="font-size:16px;font-style:normal;font-weight:normal;fill:#000000;fill-opacity:1;stroke:none;font-family:Bitstream Vera Sans"><tspan
         x="-62.713013"
         y="53.964844"
         id="tspan3407">u</tspan></text>
    <text
       x="-47.33186"
       y="58.700546"
       transform="scale(1.1228822,0.8905654)"
       id="text3409"
       xml:space="preserve"
       style="font-size:10.04910946px;font-style:normal;font-weight:normal;fill:#000000;fill-opacity:1;stroke:none;font-family:Bitstream Vera Sans"><tspan
         x="-47.33186"
         y="58.700546"
         id="tspan3411">x</tspan></text>
    <text
       x="-46.75016"
       y="54.070312"
       id="text3413"
       xml:space="preserve"
       style="font-size:16px;font-style:normal;font-weight:normal;fill:#000000;fill-opacity:1;stroke:none;font-family:Bitstream Vera Sans"><tspan
         x="-46.75016"
         y="54.070312"
         id="tspan3415">v</tspan></text>
  </g>
</svg>

<?xml version="1.0" encoding="UTF-8" standalone="no"?>
<!-- Created with Inkscape (http://www.inkscape.org/) -->
<svg
   xmlns:svg="http://www.w3.org/2000/svg"
   xmlns="http://www.w3.org/2000/svg"
   xmlns:xlink="http://www.w3.org/1999/xlink"
   version="1.0"
   width="100"
   height="100"
   id="svg2">
  <defs
     id="defs4">
    <linearGradient
       id="linearGradient3189">
      <stop
         id="stop2575"
         style="stop-color:#000000;stop-opacity:1"
         offset="0" />
      <stop
         id="stop3193"
         style="stop-color:#000000;stop-opacity:0"
         offset="1" />
    </linearGradient>
    <linearGradient
       id="linearGradient3197">
      <stop
         id="stop3199"
         style="stop-color:#e4e1e1;stop-opacity:1"
         offset="0" />
      <stop
         id="stop3201"
         style="stop-color:#e4af00;stop-opacity:1"
         offset="1" />
    </linearGradient>
    <radialGradient
       cx="50.059151"
       cy="48.853989"
       r="42.138134"
       fx="50.059151"
       fy="48.853989"
       id="radialGradient3373"
       xlink:href="#linearGradient3197"
       gradientUnits="userSpaceOnUse"
       gradientTransform="matrix(0,-1.809554,2.0282216,0,8.9085149,148.80229)" />
    <radialGradient
       cx="50.059151"
       cy="48.853989"
       r="42.138134"
       fx="50.059151"
       fy="48.853989"
       id="radialGradient3375"
       xlink:href="#linearGradient3189"
       gradientUnits="userSpaceOnUse"
       gradientTransform="matrix(0,-1.809554,2.0282216,0,8.9085149,148.80229)" />
    <radialGradient
       cx="50.059151"
       cy="48.853989"
       r="42.138134"
       fx="50.059151"
       fy="48.853989"
       id="radialGradient3377"
       xlink:href="#linearGradient3197"
       gradientUnits="userSpaceOnUse"
       gradientTransform="matrix(-0.682658,0.682658,-0.7651508,-0.7651508,53.676632,59.994632)" />
    <radialGradient
       cx="50.059151"
       cy="48.853989"
       r="42.138134"
       fx="50.059151"
       fy="48.853989"
       id="radialGradient3379"
       xlink:href="#linearGradient3189"
       gradientUnits="userSpaceOnUse"
       gradientTransform="matrix(-0.682658,0.682658,-0.7651508,-0.7651508,53.676632,59.994632)" />
    <radialGradient
       cx="50.059151"
       cy="48.853989"
       r="42.138134"
       fx="50.059151"
       fy="48.853989"
       id="radialGradient3381"
       xlink:href="#linearGradient3197"
       gradientUnits="userSpaceOnUse"
       gradientTransform="matrix(0,0.9654244,-1.0820868,0,71.17383,35.315461)" />
    <radialGradient
       cx="50.059151"
       cy="48.853989"
       r="42.138134"
       fx="50.059151"
       fy="48.853989"
       id="radialGradient3383"
       xlink:href="#linearGradient3189"
       gradientUnits="userSpaceOnUse"
       gradientTransform="matrix(0,0.9654244,-1.0820868,0,71.17383,35.315461)" />
  </defs>
  <g
     transform="matrix(0.7207312,-0.7207312,0.7207312,0.7207312,-39.422251,29.992356)"
     id="g3360">
    <g
       id="g3277">
      <g
         transform="translate(7.6547571,-11.391836)"
         id="g3263">
        <g
           transform="translate(0,-10.377415)"
           id="g3239">
          <g
             transform="matrix(-0.3772521,0.3772521,-0.3772521,-0.3772521,117.70974,90.037393)"
             id="g2557">
            <path
               d="M 43.094891,58.217554 L 24.666396,60.76013 L 51.44113,11.077996 L 78.21586,60.76013 L 60.321526,58.217554 C 60.321526,60.179919 60.127167,160.55143 60.321526,162.46287 L 43.094891,162.46287 L 43.094891,58.217554 L 43.094891,58.217554 z"
               id="path3242"
               style="fill:none;stroke:#000000;stroke-width:5.96735048;stroke-linecap:round;stroke-linejoin:round;stroke-miterlimit:4;stroke-dasharray:none;stroke-dashoffset:0;stroke-opacity:1" />
            <path
               d="M 43.094891,58.217549 L 24.666396,60.760131 L 51.44113,11.077995 L 78.21586,60.760131 L 60.321526,58.217549 C 60.321526,60.179924 60.127167,160.69603 60.321526,162.60747 L 43.094891,162.60747 L 43.094891,58.217549 L 43.094891,58.217549 z"
               id="path3176"
               style="fill:url(#radialGradient3373);fill-opacity:1;fill-rule:evenodd;stroke:url(#radialGradient3375);stroke-width:4.27327442;stroke-linecap:round;stroke-linejoin:round;stroke-miterlimit:4;stroke-dashoffset:0;stroke-opacity:1" />
          </g>
        </g>
      </g>
      <g
         transform="translate(8.4466285,-12.209158)"
         id="g3259">
        <path
           d="M 6.6064735,81.271027 L 14.517852,87.264024 L -14.325658,95.905883 L -5.683795,67.062377 L 0.10768969,74.772242 C 0.84799515,74.031937 38.786681,36.239895 39.434453,35.445479 L 45.933236,41.944263 L 6.6064735,81.271027 z"
           id="path2583"
           style="fill:none;stroke:#000000;stroke-width:3.183671;stroke-linecap:round;stroke-linejoin:round;stroke-miterlimit:4;stroke-dasharray:none;stroke-dashoffset:0;stroke-opacity:1" />
        <path
           d="M 6.6064735,81.271027 L 14.517852,87.264024 L -14.325658,95.905883 L -5.683795,67.062377 L 0.10768969,74.772242 C 0.84799515,74.031937 38.841227,36.18535 39.488999,35.390933 L 45.987783,41.889717 L 6.6064735,81.271027 L 6.6064735,81.271027 z"
           id="path2585"
           style="fill:url(#radialGradient3377);fill-opacity:1;fill-rule:evenodd;stroke:url(#radialGradient3379);stroke-width:2.27985597;stroke-linecap:round;stroke-linejoin:round;stroke-miterlimit:4;stroke-dashoffset:0;stroke-opacity:1" />
      </g>
    </g>
    <path
       d="M 52.934882,83.643786 L 62.766762,82.287283 L 48.482037,108.79345 L 34.197315,82.287283 L 43.744212,83.643786 C 43.744212,82.596834 43.847905,29.047118 43.744212,28.027336 L 52.934882,28.027336 L 52.934882,83.643786 L 52.934882,83.643786 z"
       id="path3295"
       style="fill:none;stroke:#000000;stroke-width:3.18367147;stroke-linecap:round;stroke-linejoin:round;stroke-miterlimit:4;stroke-dasharray:none;stroke-dashoffset:0;stroke-opacity:1" />
    <path
       d="M 52.934882,83.643789 L 62.766762,82.287283 L 48.482037,108.79345 L 34.197315,82.287283 L 43.744212,83.643789 C 43.744212,82.596832 43.847905,28.969971 43.744212,27.950189 L 52.934882,27.950189 L 52.934882,83.643789 L 52.934882,83.643789 z"
       id="path3297"
       style="opacity:0;fill:url(#radialGradient3381);fill-opacity:1;fill-rule:evenodd;stroke:url(#radialGradient3383);stroke-width:2.27985644;stroke-linecap:round;stroke-linejoin:round;stroke-miterlimit:4;stroke-dashoffset:0;stroke-opacity:1" />
  </g>
  <g
     transform="matrix(2.6976418,0,0,2.6976418,204.55893,-46.715806)"
     id="g3417">
    <text
       x="-62.713013"
       y="53.964844"
       id="text3405"
       xml:space="preserve"
       style="font-size:16px;font-style:normal;font-weight:normal;fill:#000000;fill-opacity:1;stroke:none;font-family:Bitstream Vera Sans"><tspan
         x="-62.713013"
         y="53.964844"
         id="tspan3407">u</tspan></text>
    <text
       x="-47.33186"
       y="58.700546"
       transform="scale(1.1228822,0.8905654)"
       id="text3409"
       xml:space="preserve"
       style="font-size:10.04910946px;font-style:normal;font-weight:normal;fill:#000000;fill-opacity:1;stroke:none;font-family:Bitstream Vera Sans"><tspan
         x="-47.33186"
         y="58.700546"
         id="tspan3411">x</tspan></text>
    <text
       x="-46.75016"
       y="54.070312"
       id="text3413"
       xml:space="preserve"
       style="font-size:16px;font-style:normal;font-weight:normal;fill:#000000;fill-opacity:1;stroke:none;font-family:Bitstream Vera Sans"><tspan
         x="-46.75016"
         y="54.070312"
         id="tspan3415">v</tspan></text>
  </g>
</svg>
